icons/folder-lottie.svg

<svg xmlns="http://www.w3.org/2000/svg" viewBox="0 0 16 16">
<path id="folder" fill="#00bfa5" d="m6.922 3.768-.644-.536A1 1 0 0 0 5.638 3H2a1 1 0 0 0-1 1v8a1 1 0 0 0 1 1h12a1 1 0 0 0 1-1V5a1 1 0 0 0-1-1H7.562a1 1 0 0 1-.64-.232" />
<path id="motive" fill="#a7ffeb" d="M 14,5 H 9 A 2,2 0 0 0 7,7 v 5 a 2,2 0 0 0 2,2 h 5 a 2,2 0 0 0 2,-2 V 7 A 2,2 0 0 0 14,5 m 0,2.7815 a 0.24,0.24 0 0 1 -0.2185,0.232 C 13.011,8.114 12.553,8.7585 11.924,9.765 11.3075,10.7505 10.6145,11.86 9.2625,11.988 A 0.2475,0.2475 0 0 1 9,11.7375 v -0.519 A 0.24,0.24 0 0 1 9.2185,10.986 C 9.989,10.886 10.447,10.2415 11.076,9.235 11.6925,8.2495 12.3855,7.14 13.7375,7.012 A 0.2475,0.2475 0 0 1 14,7.2625 Z" />
</svg>

<svg xmlns="http://www.w3.org/2000/svg" viewBox="0 0 16 16"><path id="folder" fill="#00bfa5" d="m6.922 3.768-.644-.536A1 1 0 0 0 5.638 3H2a1 1 0 0 0-1 1v8a1 1 0 0 0 1 1h12a1 1 0 0 0 1-1V5a1 1 0 0 0-1-1H7.562a1 1 0 0 1-.64-.232"/><path id="motive" fill="#a7ffeb" d="M14 5H9a2 2 0 0 0-2 2v5a2 2 0 0 0 2 2h5a2 2 0 0 0 2-2V7a2 2 0 0 0-2-2m0 2.782a.24.24 0 0 1-.218.231c-.771.101-1.229.745-1.858 1.752-.617.986-1.31 2.095-2.661 2.223a.25.25 0 0 1-.263-.25v-.52a.24.24 0 0 1 .219-.232c.77-.1 1.228-.745 1.857-1.751.617-.985 1.31-2.095 2.662-2.223a.25.25 0 0 1 .262.25Z"/></svg>
